packages/icons/src/svg/unlocked.svg

<svg xmlns="http://www.w3.org/2000/svg" viewBox="0 0 16 16"><path d="M12,7V4s0-4-4-4S4,4,4,4H6A1.95878,1.95878,0,0,1,8,2a1.95878,1.95878,0,0,1,2,2V7H4L2,7.00049V16H14V7ZM9,14H7V11H9Z"/></svg>

<svg xmlns="http://www.w3.org/2000/svg" viewBox="0 0 16 16">
	<path d="M12 7V4s0-4-4-4-4 4-4 4h2a1.959 1.959 0 0 1 2-2 1.959 1.959 0 0 1 2 2v3H2v9h12V7zm-3 7H7v-3h2z"/>
</svg>
